soundbar.svg

<svg fill="currentColor" viewBox="0 0 24 24"><path d="M4 8c-1.1 0-2 .9-2 2v4a2 2 0 0 0 2 2h16c1.11 0 2-.89 2-2v-4a2 2 0 0 0-2-2M9 10a2 2 0 0 1 2 2c0 1.11-.89 2-2 2a2 2 0 1 1 0-4m6 0a2 2 0 0 1 2 2c0 1.11-.89 2-2 2a2 2 0 1 1 0-4M5 11c.55 0 1 .45 1 1s-.45 1-1 1-1-.45-1-1 .45-1 1-1m4 0c-.55 0-1 .45-1 1s.45 1 1 1 1-.45 1-1-.45-1-1-1m6 0c-.55 0-1 .45-1 1s.45 1 1 1 1-.45 1-1-.45-1-1-1m4 0c.55 0 1 .45 1 1s-.45 1-1 1-1-.45-1-1 .45-1 1-1"/></svg>

<svg  viewBox="0 0 24 24" fill="currentColor"><path  d="M4 8C2.9 8 2 8.9 2 10V14C2 15.11 2.9 16 4 16H20C21.11 16 22 15.11 22 14V10C22 8.9 21.11 8 20 8M9 10C10.11 10 11 10.9 11 12C11 13.11 10.11 14 9 14C7.9 14 7 13.11 7 12C7 10.9 7.9 10 9 10M15 10C16.11 10 17 10.9 17 12C17 13.11 16.11 14 15 14C13.9 14 13 13.11 13 12C13 10.9 13.9 10 15 10M5 11C5.55 11 6 11.45 6 12C6 12.55 5.55 13 5 13C4.45 13 4 12.55 4 12C4 11.45 4.45 11 5 11M9 11C8.45 11 8 11.45 8 12C8 12.55 8.45 13 9 13C9.55 13 10 12.55 10 12C10 11.45 9.55 11 9 11M15 11C14.45 11 14 11.45 14 12C14 12.55 14.45 13 15 13C15.55 13 16 12.55 16 12C16 11.45 15.55 11 15 11M19 11C19.55 11 20 11.45 20 12C20 12.55 19.55 13 19 13C18.45 13 18 12.55 18 12C18 11.45 18.45 11 19 11Z"/></svg>
